casedrop/img/media/steam.svg

<svg width="27" height="15" viewBox="0 0 27 15" fill="none" xmlns="http://www.w3.org/2000/svg">
<path d="M22.0313 1.87502C23.3257 1.87502 24.375 2.92435 24.375 4.21875C24.375 5.51315 23.3257 6.56248 22.0313 6.56248C20.7368 6.56248 19.6875 5.51315 19.6875 4.21875C19.6875 2.92435 20.7368 1.87502 22.0313 1.87502ZM3.28127 0.93748C5.09347 0.93748 6.56254 2.40655 6.56254 4.21875L6.54466 4.56294L13.4891 8.16424C14.0393 7.74734 14.7252 7.50002 15.4688 7.50002L17.8125 4.21875C17.8125 1.88882 19.7013 0 22.0313 0C24.3612 0 26.25 1.88882 26.25 4.21875C26.25 6.54868 24.3612 8.4375 22.0313 8.4375L18.75 10.7812C18.75 12.5934 17.2809 14.0625 15.4688 14.0625C13.6566 14.0625 12.1875 12.5934 12.1875 10.7812C12.1875 10.7402 12.1883 10.6993 12.1898 10.6585L5.07322 6.96795C4.55803 7.30445 3.94247 7.50002 3.28127 7.50002C1.46907 7.50002 0 6.03095 0 4.21875C0 2.40655 1.46907 0.93748 3.28127 0.93748ZM16.4424 9.69584C17.1344 10.0484 17.4096 10.8953 17.057 11.5873C16.7044 12.2793 15.8576 12.5544 15.1656 12.2018L13.1553 11.1593C13.3361 12.274 14.3031 13.125 15.4688 13.125C16.7632 13.125 17.8125 12.0757 17.8125 10.7812C17.8125 9.48683 16.7632 8.4375 15.4688 8.4375C15.1066 8.4375 14.7636 8.51968 14.4573 8.66641L16.4424 9.69584ZM3.28127 1.87502C1.98687 1.87502 0.93754 2.92435 0.93754 4.21875C0.93754 5.51315 1.98687 6.56248 3.28127 6.56248C3.5489 6.56248 3.80605 6.51766 4.04562 6.43506L2.48957 5.62808C1.79757 5.27548 1.52242 4.42871 1.87502 3.73672C2.22762 3.04472 3.07439 2.76957 3.76644 3.12217L5.62121 4.08405C5.5514 2.85229 4.53043 1.87502 3.28127 1.87502ZM22.0313 0.93748C20.2191 0.93748 18.75 2.40655 18.75 4.21875C18.75 6.03095 20.2191 7.50002 22.0313 7.50002C23.8434 7.50002 25.3125 6.03095 25.3125 4.21875C25.3125 2.40655 23.8434 0.93748 22.0313 0.93748Z" fill="#67718E"/>
</svg>

<svg width="27" height="15" fill="none" xmlns="http://www.w3.org/2000/svg"><path d="M22.031 1.875a2.344 2.344 0 110 4.687 2.344 2.344 0 010-4.687zM3.281.937A3.281 3.281 0 016.563 4.22l-.018.344 6.944 3.601a3.267 3.267 0 011.98-.664l2.344-3.281a4.219 4.219 0 114.218 4.218l-3.281 2.344a3.281 3.281 0 11-6.56-.123l-7.117-3.69A3.281 3.281 0 113.281.938zm13.161 8.759a1.406 1.406 0 01-1.276 2.506l-2.01-1.043a2.344 2.344 0 101.301-2.493l1.985 1.03zM3.282 1.875a2.344 2.344 0 10.764 4.56L2.49 5.628a1.406 1.406 0 111.276-2.506l1.855.962a2.344 2.344 0 00-2.34-2.209zm18.75-.938a3.281 3.281 0 100 6.563 3.281 3.281 0 000-6.563z" fill="#67718E"/></svg>
